X:1
T:Nellie The Elephant
R:Jig
C:Ralph Butler, Peter Hart (1956)
F:http://hardy.demon.co.uk/pgh_session_tunebook.abc (disappeared in April 2008)
M:6/8
L:1/8
P:AABBAABBCBB
K:Gm
z "A"\
| "Gm"B2z "D7"A2z | "Gm"G2z z2B \
| d2d c2B | "D7"A3 z2A \
| A2A A2A | d2A A2A \
| "A7"=e2A A2A | "D"d3 z2 :|
K:G
"B"\
|: "D7"c \
| "G"Bcd "D7"cBA | "G"B2c d2d \
| "C"e2e gfe | "G"d3 B3 \
| "Am"c2c "D7"AAA | "G"ddd B3 \
|1 "A7"A3 A3 | "D"d3 "D7"z2 \
:|2 "C"e3 "D"F3 | "G"G3 "fine"z2 ||
"C"[|]\
"G7"G \
| "C"Gce g2e | "G"g3 d3 \
| "C"e3 "D7"d2c | "G"B3-B2B \
| "A"A2B ^cBA | "D"d2e ffg \
| "A"a2g f2e | "D7"d3 z2 |]
%[| "G"Bcd "D7"cBA | "G"B2B d2d \
%| "C"e2e gfe | "G"d3 B3 \
%| "Am"c2c "D7"AAA | "G"ddd B3 \
%| "C"e3 "D"F3 | "G"G3 z3 |]
